X:15
T:Concertina, The
C:Traditional
R:reel
K:D
M:4/4
L:1/8
|: A2FA BAFA| A2FA BAFA| B2BA B2BA| B2BA BAFA|
! A2FA BAFA| A2FA BAFA| FABc d2dA| BAFE D4:| ! |:
Addd Addd| AddA BAFA| B2BA B2BA| B2BA BAFA|
! Addd Addd| AddA BAFA| FABc d2dA| BAFE D4:|
%%footer JamBuddy 2025 - No rights reserved, public domain

